svg/300/rounded/timelapse.svg

<svg xmlns="http://www.w3.org/2000/svg" width="48" height="48" viewBox="0 -960 960 960"><path d="M480-220.771q108.217 0 183.723-75.506Q739.229-371.783 739.229-480q0-95.845-61.076-168.037-61.076-72.192-155.152-85.884-13.616-2.385-23.308 6.23-9.692 8.616-9.692 22.231v229.306l-158.23 164.307q-9.385 9.616-8.308 22.423 1.077 12.808 11.077 20.423 31.538 23.615 68.674 35.923Q440.35-220.771 480-220.771Zm.067 120.77q-78.221 0-147.397-29.92-69.176-29.92-120.989-81.71-51.814-51.791-81.747-120.936-29.933-69.146-29.933-147.366 0-78.836 29.92-148.204 29.92-69.369 81.71-120.682 51.791-51.314 120.936-81.247 69.146-29.933 147.366-29.933 78.836 0 148.204 29.92 69.369 29.92 120.682 81.21 51.314 51.291 81.247 120.629 29.933 69.337 29.933 148.173 0 78.221-29.92 147.397-29.92 69.176-81.21 120.989-51.291 51.814-120.629 81.747-69.337 29.933-148.173 29.933ZM480-145.385q139.692 0 237.154-97.769Q814.615-340.923 814.615-480q0-139.692-97.461-237.154Q619.692-814.615 480-814.615q-139.077 0-236.846 97.461Q145.385-619.692 145.385-480q0 139.077 97.769 236.846T480-145.385ZM480-480Z"/></svg>

<svg xmlns="http://www.w3.org/2000/svg" width="48" height="48" viewBox="0 -960 960 960"><path d="M480-220.77q108.22 0 183.72-75.51 75.51-75.5 75.51-183.72 0-95.85-61.08-168.04-61.07-72.19-155.15-85.88-13.61-2.39-23.31 6.23-9.69 8.61-9.69 22.23v229.31l-158.23 164.3q-9.38 9.62-8.31 22.43 1.08 12.8 11.08 20.42 31.54 23.61 68.67 35.92 37.14 12.31 76.79 12.31Zm.07 120.77q-78.22 0-147.4-29.92t-120.99-81.71q-51.81-51.79-81.75-120.94Q100-401.71 100-479.93q0-78.84 29.92-148.21t81.71-120.68q51.79-51.31 120.94-81.25Q401.71-860 479.93-860q78.84 0 148.21 29.92t120.68 81.21q51.31 51.29 81.25 120.63Q860-558.9 860-480.07q0 78.22-29.92 147.4t-81.21 120.99q-51.29 51.81-120.63 81.75Q558.9-100 480.07-100Zm-.07-45.39q139.69 0 237.15-97.76 97.46-97.77 97.46-236.85 0-139.69-97.46-237.15-97.46-97.46-237.15-97.46-139.08 0-236.85 97.46-97.76 97.46-97.76 237.15 0 139.08 97.76 236.85 97.77 97.76 236.85 97.76ZM480-480Z"/></svg>
